!!!!SEGMENT: pl-sa--203-a-vi-7--001_ruth-christian-joseph--scholastica-venerabilis.krn
!!!cenid: 17xx:545
!!!COM: Ruth, Christian Joseph
!!!COM-rismid: pe41010076
!!!CDT:
!!!CNT:
!!!OTL: Scholastica venerabilis
!!!PDT:
!!!AGN: Sacred
!!!SMS-siglum: PL-SA
!!!SMS-shelfmark: 203/A VI 7
!!!SMS-shelfwork: 001 W
!!!SMS-variant:
!!!SMS-altvar:
!!!NIFC-rismid: 1001067769
!!!URL-scan: http://bc.bdsandomierz.pl/dlibra/publication/1559/edition/1527/content
!!!ONB-nifc:
!!!key:
**kern	**fba	**kern	**kern	**kern	**dynam	**kern	**text
*part5	*	*part4	*part3	*part2	*part2	*part1	*part1
*	*	*group1	*group1	*group1	*	*	*
*staff5	*	*staff4	*staff3	*staff2	*	*staff1	*staff1
*Iempty	*	*Iviola	*Ivioln	*Ivioln	*	*Ivox	*
*I"Fundamento Generali	*	*I"Alto Viola Neceſsaria	*I"Violino 2do	*I"Violino Primo	*	*I"Canto Solo	*
*I'bc	*	*I'vla	*I'vl II	*I'vl I	*	*I'C	*
*clefF4	*	*clefC3	*clefG2	*clefG2	*	*clefC1	*
*k[f#]	*	*k[f#]	*k[f#]	*k[f#]	*	*k[f#]	*
*G:	*	*G:	*G:	*G:	*	*G:	*
*M2/2	*	*M2/2	*M2/2	*M2/2	*	*M2/2	*
*met(c|)	*	*met(c|)	*met(c|)	*met(c|)	*	*met(c|)	*
=1	=1	=1	=1	=1	=1	=1	=1
!	!	!	!LO:TX:b:B:t=Aria	!LO:TX:a:t=P:problem:oznaczenie metryczne przekreślone Z	!	!	!
!LO:TX:b:t=Aria.	!	!LO:TX:a:t=P:problem:oznaczenie metryczne przekreślone Z	!LO:TX:a:t=P:problem:oznaczenie metryczne przekreślone Z	!LO:TX:b:B:t=Aria	!	!LO:TX:a:t=P:problem:oznaczenie metryczne przekreślone Z	!
!LO:TX:a:t=P:problem:oznaczenie metryczne przekreślone Z	!	!LO:TX:b:t=Aria.	!LO:TX:a:B:t=Andante	!LO:TX:a:B:t=andante	!	!LO:TX:a:t=Aria 1	!
!LO:TX:a:t=1	!	!LO:TX:a:t=1	!LO:TX:a:B:t=1	!LO:TX:a:B:t=1	!	!	!
4G\	.	4B/	8dd\L	8dd\L	.	00r	.
!	!	!	!	!LO:TX:a:t=P:problem:przekreślenie w środku	!	!	!
.	.	.	8dd\	8dd\	.	.	.
4G\	.	4B/	8dd\	8dd\	.	.	.
!	!	!	!	!LO:TX:a:t=P:problem:dziwna kreska łącząca nuty	!	!	!
.	.	.	8dd\J	8dd\J	.	.	.
4G\	.	4B/	4b/	4b/	.	.	.
4G\	.	4B/	8a/L	(8a/L	.	.	.
.	.	.	8g/J	8g/J)	.	.	.
=2	=2	=2	=2	=2	=2	=2	=2
4G\	.	4c/	4cc\	4ee\	.	.	.
4G\	.	4d/	4b\	4dd\	.	.	.
*	*	*	*2\right	*2\right	*	*	*
4B\	.	4d/	2dd\	2gg\	.	.	.
4G\	.	4B/	.	.	.	.	.
=3	=3	=3	=3	=3	=3	=3	=3
*	*	*	*Xtuplet	*Xtuplet	*	*	*
4c\	.	4G/	12ee\L	12ee\L	.	.	.
.	.	.	12dd\	12dd\	.	.	.
.	.	.	12cc\J	12cc\J	.	.	.
4c\	.	4G/	8ee'\L	8ee'\L	.	.	.
.	.	.	8ee'\J	8ee'\J	.	.	.
4B\	.	4G/	12dd\L	12dd\L	.	.	.
!	!	!	!	!LO:TX:a:t=bis	!	!	!
.	.	.	12cc\	12cc\	.	.	.
.	.	.	12b\J	12b\J	.	.	.
4F#\	.	4A/	8cc'\L	8cc'\L	.	.	.
.	.	.	8cc'\J	8cc'\J	.	.	.
=4	=4	=4	=4	=4	=4	=4	=4
4G\	.	4d\	12b/L	12b/L	.	.	.
.	.	.	12a/	12a/	.	.	.
.	.	.	12g/J	12g/J	.	.	.
4G\	.	4d\	4g/	4.g/	.	.	.
4B\	.	4d\	4g/	.	.	.	.
.	.	.	.	8a/L	.	.	.
4G\	.	4B/	4dd\	8b/	.	.	.
.	.	.	.	8cc/J	.	.	.
=5	=5	=5	=5	=5	=5	=5	=5
!	!	!	!	!LO:TX:a:t=problem:takty 5-6 zapisane repetycją, adnotacja "bis"	!	!	!
4c\	.	4A/	12ee\L	12ee\Lyy	.	00r	.
.	.	.	12dd\	12dd\yy	.	.	.
.	.	.	12cc\J	12cc\Jyy	.	.	.
4A\	.	4A/	8ee'\L	8ee'\Lyy	.	.	.
.	.	.	8ee'\J	8ee'\Jyy	.	.	.
4d\	.	4B/	12dd\L	12dd\Lyy	.	.	.
.	.	.	12cc\	12cc\yy	.	.	.
.	.	.	12b\J	12b\Jyy	.	.	.
4D/	.	4A/	8cc'\L	8cc'\Lyy	.	.	.
.	.	.	8cc'\J	8cc'\Jyy	.	.	.
=6	=6	=6	=6	=6	=6	=6	=6
4G\	.	4d\	12b/L	12b/Lyy	.	.	.
.	.	.	12a/	12a/yy	.	.	.
.	.	.	12g/J	12g/Jyy	.	.	.
4G\	.	4B\	4.g/	4.g/yy	.	.	.
4G\	.	4B\	.	.	.	.	.
.	.	.	8a/L	8a/Lyy	.	.	.
4G\	.	4B\	8b/	8b/yy	.	.	.
.	.	.	8cc/J	8cc/Jyy	.	.	.
=7	=7	=7	=7	=7	=7	=7	=7
!	!	!	!	!LO:TX:a:t=P:problem:mixed beam	!	!	!
4G\	.	4B/	4dd\	8dd\L	.	.	.
.	.	.	.	8g/	.	.	.
4G\	.	4B/	4dd\	8g/	.	.	.
.	.	.	.	8g/J	.	.	.
!	!	!	!	!LO:TX:a:t=P:problem:mixed beam	!	!	!
4B\	.	4G/	4dd\	8g/L	.	.	.
.	.	.	.	8dd\	.	.	.
4B\	.	4G/	4dd\	8dd\	.	.	.
.	.	.	.	8dd\J	.	.	.
!	!	!	!LO:LB:g=original	!	!	!	!
=8	=8	=8	=8	=8	=8	=8	=8
.	.	.	.	8qqdd/	.	.	.
4A\	#	4A/	12ee\L	2.cc#X\	.	.	.
.	.	.	12dd\	.	.	.	.
.	.	.	12cc#X\J	.	.	.	.
4A\	.	4e\	2cc#\	.	.	.	.
4A\	.	4e\	.	.	.	.	.
4A\	.	4c#X\	4ee\	12a\L	.	.	.
.	.	.	.	12cc#X\	.	.	.
.	.	.	.	12ee\J	.	.	.
=9	=9	=9	=9	=9	=9	=9	=9
4B\	.	4d\	4gg\	4gg\	.	00r	.
4B\	.	4d\	8gg\L	8gg\L	.	.	.
.	.	.	8gg\J	8gg\J	.	.	.
4c#X\	.	4e\	8gg\L	8gg\L	.	.	.
.	.	.	8bb\	8bb\	.	.	.
4c#\	.	4e\	8aa\	8aa\	.	.	.
.	.	.	8gg\J	8gg\J	.	.	.
!	!	!	!	!LO:LB:g=original	!	!	!
=10	=10	=10	=10	=10	=10	=10	=10
.	.	.	.	8qqgg/	.	.	.
4d\	.	4A/	8ff#\L	2.ff#\	.	.	.
.	.	.	8ee\	.	.	.	.
4d\	.	4A/	8dd\	.	.	.	.
.	.	.	8cc#X\J	.	.	.	.
4d\	.	4A/	4dd\	.	.	.	.
4B\	.	4d\	8gg\L	8gg\L	.	.	.
.	.	.	8dd\J	8dd\J	.	.	.
!LO:LB:g=original	!	!LO:LB:g=original	!	!	!	!	!
=11	=11	=11	=11	=11	=11	=11	=11
4c\	.	4G/	4ee\	8ee\L	.	.	.
.	.	.	.	8gg\	.	.	.
4c\	.	4G/	4ee\	8ee\	.	.	.
.	.	.	.	8cc\J	.	.	.
4B\	.	4G/	4dd\	8dd\L	.	.	.
.	.	.	.	8gg\	.	.	.
4B\	.	4G/	4dd\	8dd\	.	.	.
.	.	.	.	8b\J	.	.	.
=12	=12	=12	=12	=12	=12	=12	=12
4A\	.	4e\	4cc\	2.cc\	.	.	.
4A\	.	4e\	4.cc\	.	.	.	.
4F#\	.	4d\	.	.	.	.	.
.	.	.	8ee\L	.	.	.	.
4F#\	.	4d\	8dd\	12ee\L	.	.	.
.	.	.	.	12dd\	.	.	.
.	.	.	8cc\J	.	.	.	.
.	.	.	.	12cc\J	.	.	.
=13	=13	=13	=13	=13	=13	=13	=13
4G\	.	4B/	4b\	12b\L	.	00r	.
.	.	.	.	12g\	.	.	.
.	.	.	.	12b\J	.	.	.
4G\	.	4B/	4b\	12dd\L	.	.	.
.	.	.	.	12b\	.	.	.
.	.	.	.	12dd\J	.	.	.
4G\	.	4B/	4b\	4gg\	.	.	.
4G\	.	4B/	4b\	4b\	.	.	.
=14	=14	=14	=14	=14	=14	=14	=14
4r	.	4r	4cc\	4cc\	.	.	.
4E\	.	4g\	4.cc\	4.cc\	.	.	.
4F#\	.	4a\	.	.	.	.	.
.	.	.	8ee\L	8ee\L	.	.	.
4F#\	.	4a\	8dd\	8dd\	.	.	.
.	.	.	8cc\J	8cc\J	.	.	.
=15	=15	=15	=15	=15	=15	=15	=15
4G\	.	4d\	12b/L	12b/L	.	.	.
.	.	.	12a/	12a/	.	.	.
.	.	.	12g/J	12g/J	.	.	.
4E\	.	4g\	8cc\L	8cc\L	.	.	.
.	.	.	8a\J	8a\J	.	.	.
4C\	.	4e\	4.b/	4.b/	.	.	.
4D\	.	4f#\	.	.	.	.	.
.	.	.	8a/	8a/	.	.	.
=16	=16	=16	=16	=16	=16	=16	=16
*Xtuplet	*	*Xtuplet	*	*	*	*	*
12G\L	.	12g\L	12g/L	12g/L	.	.	.
12F#\	.	12f#\	12f#/	12f#/	.	.	.
12E\J	.	12e\J	12e/J	12e/J	.	.	.
!	!	!	!	!LO:TX:a:t=bis	!	!	!
8D/L	.	8d\L	8d/L	8d/L	.	.	.
8BB/J	.	8B\J	8B/J	8B/J	.	.	.
4C/	.	4c\	4c/	4c/	.	.	.
4D/	.	4d\	4d/	4d/	.	.	.
=17	=17	=17	=17	=17	=17	=17	=17
!	!	!	!	!LO:TX:a:t=P:problem:takt zapisany repetycją, adnotacja "bis"	!	!	!
12G\L	.	12g\L	12g/L	12g/Lyy	.	0r	.
12F#\	.	12f#\	12f#/	12f#/yy	.	.	.
12E\J	.	12e\J	12e/J	12e/Jyy	.	.	.
8D/L	.	8d\L	8d/L	8d/Lyy	.	.	.
8BB/J	.	8B\J	8B/J	8B/Jyy	.	.	.
4C/	.	4c\	4c/	4c/yy	.	.	.
4D/	.	4d\	4d/	4d/yy	.	.	.
!	!	!	!LO:LB:g=original	!	!	!	!
=18	=18	=18	=18	=18	=18	=18	=18
8G\L	.	8g\L	8g/L	8g/L	.	.	.
8D\	.	8d\	8d/	8d/	.	.	.
8BB\	.	8B\	8B/	8B/	.	.	.
8D\J	.	8d\J	8d/J	8d/J	.	.	.
4GG/	.	4G/	4G/	4G/	.	.	.
4r	.	4r	4r	4r	.	.	.
=19	=19	=19	=19	=19	=19	=19	=19
*	*	*	*	*	*	*2\right	*
!	!	!	!	!	!LO:DY:b	!LO:TX:b:t=P:problem:"S" przed kluczem	!
00r	.	8g\L	8b\L	8dd\L	p	2dd\	[S]cho-
.	.	8g\	8b\	8dd\	.	.	.
.	.	8g\	8b\	8dd\	.	.	.
.	.	8g\J	8b\J	8dd\J	.	.	.
.	.	8g\L	8b\L	8dd\L	.	4b\	-la-
.	.	8g\	8b\	8dd\	.	.	.
.	.	8g\	8b\	8dd\	.	(8a\L	-ſti-
.	.	8g\J	8b\J	8dd\J	.	8g\J)	.
!	!	!	!	!LO:LB:g=original	!	!	!
=20	=20	=20	=20	=20	=20	=20	=20
.	.	8g\L	8cc\L	8ee\L	.	(4ee\	-ca
.	.	8g\	8cc\	8ee\	.	.	.
.	.	8g\	8b\	8dd\	.	4dd\)	.
.	.	8g\J	8b\J	8dd\J	.	.	.
.	.	8g\L	8b\L	8dd\L	.	4gg\	ve-
.	.	8g\	8b\	8dd\	.	.	.
.	.	8g\	8b\	8dd\	.	4dd\	-ne-
.	.	8g\J	8b\J	8dd\J	.	.	.
!	!	!LO:LB:g=original	!	!	!	!	!
=21	=21	=21	=21	=21	=21	=21	=21
*	*	*	*	*	*	*Xtuplet	*
.	.	8cc\L	8g/L	8ee\L	.	(12ee\L	-ra-
.	.	.	.	.	.	12dd\	.
.	.	8cc\	8g/	8ee\	.	.	.
.	.	.	.	.	.	12cc\J	.
.	.	8cc\	8g/	8ee\	.	4ee\)	.
.	.	8cc\J	8g/J	8ee\J	.	.	.
.	.	8g\L	8g/L	8dd\L	.	12dd\L	-bi-
.	.	.	.	.	.	12cc\	.
.	.	8g\	8g/	8dd\	.	.	.
.	.	.	.	.	.	12b\J	.
.	.	8d\	8f#/	8cc\	.	4cc\	-lis
.	.	8d\J	8f#/J	8cc\J	.	.	.
=22	=22	=22	=22	=22	=22	=22	=22
.	.	8g\L	8d/L	8b\L	.	8b\L	pa-
.	.	8g\	8b/	8dd\	.	8a\J	.
.	.	8g\	8b/	8dd\	.	2g\	-tris,
.	.	8g\J	8b/J	8dd\J	.	.	.
.	.	8g\L	8b\L	8dd\L	.	.	.
.	.	8b\	8dd\	8gg\	.	.	.
.	.	8b\	8dd\	8gg\	.	(4dd\	.
.	.	8g\J	8b\J	8dd\J	.	.	.
=23	=23	=23	=23	=23	=23	=23	=23
1r	.	8cc\L	8g/L	8ee\L	.	12ee\L)	Be-
.	.	.	.	.	.	12dd\	.
.	.	8cc\	8g/	8ee\	.	.	.
.	.	.	.	.	.	12cc\J	.
.	.	8cc\	8g/	8ee\	.	4ee\	-ne-
.	.	8cc\J	8g/J	8ee\J	.	.	.
.	.	8b\L	8g/L	8dd\L	.	12dd\L	-di-
.	.	.	.	.	.	12cc\	.
.	.	8b\	8g/	8dd\	.	.	.
.	.	.	.	.	.	12b\J	.
.	.	8dd\	8f#/	8cc\	.	4cc\	-cti
.	.	8dd\J	8f#/J	8cc\J	.	.	.
=24	=24	=24	=24	=24	=24	=24	=24
2r	.	8g\L	8g/L	8b\L	.	8b\L	ſo-
.	.	8g\	8b/	8g\	.	8a\J	.
.	.	8g\	8b/	8b\	.	2g\	-ror
.	.	8g\J	8b/J	8dd\J	.	.	.
4r	.	4g\	4b/	4gg\	.	.	.
4G\	.	4B/	4b/	4dd\	.	4r	.
=25	=25	=25	=25	=25	=25	=25	=25
4E\	.	4G/	4cc\	4cc\	.	00r	.
4E\	.	4G/	4.cc\	4.cc\	.	.	.
4F#\	.	4A/	.	.	.	.	.
.	.	.	8ee\L	8ee\L	.	.	.
4F#\	.	4A/	8dd\	8dd\	.	.	.
.	.	.	8cc\J	8cc\J	.	.	.
!LO:LB:g=original	!	!	!	!	!	!	!
=26	=26	=26	=26	=26	=26	=26	=26
4G\	.	4d\	12b/L	12b/L	.	.	.
.	.	.	12a/	12a/	.	.	.
.	.	.	12g/J	12g/J	.	.	.
4C\	.	4e\	8cc\L	8cc\L	.	.	.
.	.	.	8a\J	8a\J	.	.	.
!	!	!	!LO:TX:a:t=P:problem:niejednoznaczny zapis ozdobnika [przyjęto mordent]&colon;global	!	!	!	!
4D\	.	4g\	4.bm/	4.b/	.	.	.
4DD/	.	4f#\	.	.	.	.	.
.	.	.	8a/	8a/	.	.	.
!	!	!	!LO:LB:g=original	!	!	!	!
=27	=27	=27	=27	=27	=27	=27	=27
12G\L	.	12g\L	12g/L	12g/L	.	.	.
12F#\	.	12f#\	12f#/	12f#/	.	.	.
12E\J	.	12e\J	12e/J	12e/J	.	.	.
8D/L	.	8d\L	8d/L	8d/L	.	.	.
8BB/J	.	8B\J	8B/J	8B/J	.	.	.
4C/	.	4c\	4c/	4c/	.	.	.
4D/	.	4d\	4d/	4d/	.	.	.
=28	=28	=28	=28	=28	=28	=28	=28
12G\L	.	12g\L	12g/L	12g/L	.	.	.
12F#\	.	12f#\	12f#/	12f#/	.	.	.
12E\J	.	12e\J	12e/J	12e/J	.	.	.
8D/L	.	8d\L	8d/L	8d/L	.	.	.
8BB/J	.	8B\J	8B/J	8B/J	.	.	.
4C/	.	4c\	4c/	4c/	.	.	.
4D/	.	4d\	4d/	4d/	.	.	.
!	!	!	!	!LO:LB:g=original	!	!	!
=29	=29	=29	=29	=29	=29	=29	=29
8G\L	.	8g\L	8g/L	8g/L	.	1r	.
8D\	.	8d\	8d/	8d/	.	.	.
8BB\	.	8B\	8B/	8B/	.	.	.
8D\J	.	8d\J	8d/J	8d/J	.	.	.
4GG/	.	4G/	4G/	4G/	.	.	.
4r	.	4r	4r	4r	.	.	.
!	!	!LO:LB:g=original	!	!	!	!LO:LB:g=original	!
=30	=30	=30	=30	=30	=30	=30	=30
00r	.	8g\L	8b\L	8dd\L	.	2dd\	ſcho-
.	.	8g\	8b\	8dd\	.	.	.
.	.	8g\	8b\	8dd\	.	.	.
.	.	8g\J	8b\J	8dd\J	.	.	.
.	.	8g\L	8b\L	8dd\L	.	4b\	-la-
.	.	8g\	8b\	8dd\	.	.	.
.	.	8g\	8b\	8dd\	.	8a\L	-ſti-
.	.	8g\J	8b\J	8dd\J	.	8g\J	.
=31	=31	=31	=31	=31	=31	=31	=31
.	.	8g\L	8cc\L	8ee\L	.	(4ee\	-ca,
.	.	8g\	8cc\	8ee\	.	.	.
.	.	8g\	8b\	8dd\	.	4dd\)	.
.	.	8g\J	8b\J	8dd\J	.	.	.
.	.	8g\L	8b\L	8dd\L	.	4gg\	ve-
.	.	8g\	8b\	8dd\	.	.	.
.	.	8g\	8b\	8dd\	.	4dd\	-ne-
.	.	8g\J	8b\J	8dd\J	.	.	.
=32	=32	=32	=32	=32	=32	=32	=32
.	.	8cc\L	8g/L	8ee\L	.	12ee\L	-ra-
.	.	.	.	.	.	(12dd\	.
.	.	8cc\	8g/	8ee\	.	.	.
.	.	.	.	.	.	12cc\J	.
.	.	8cc\	8g/	8ee\	.	4ee\)	.
.	.	8cc\J	8g/J	8ee\J	.	.	.
.	.	8g\L	8g/L	8dd\L	.	12dd\L	-bi-
.	.	.	.	.	.	12cc\	.
.	.	8g\	8g/	8dd\	.	.	.
.	.	.	.	.	.	12b\J	.
.	.	8d\	8f#/	8cc\	.	4cc\	-lis
.	.	8d\J	8f#/J	8cc\J	.	.	.
=33	=33	=33	=33	=33	=33	=33	=33
.	.	8g\L	8d/L	8b\L	.	8b\L	ſo-
.	.	8g\	8b/	8dd\	.	8a\J	.
.	.	8g\	8b/	8dd\	.	2g\	-ror
.	.	8g\J	8b/J	8dd\J	.	.	.
.	.	8g\L	8b\L	8dd\L	.	.	.
.	.	8b\	8dd\	8gg\	.	.	.
.	.	8b\	8dd\	8gg\	.	4dd\	.
.	.	8g\J	8b\J	8dd\J	.	.	.
=34	=34	=34	=34	=34	=34	=34	=34
00r	.	8cc\L	8g/L	8ee\L	.	12ee\L	Pa-
.	.	.	.	.	.	12dd\	.
.	.	8cc\	8g/	8ee\	.	.	.
.	.	.	.	.	.	12cc\J	.
.	.	8cc\	8g/	8ee\	.	4ee\	-tris
.	.	8cc\J	8g/J	8ee\J	.	.	.
*	*	*	*	*	*	*	*ij
.	.	8g\L	8g/L	8dd\L	.	12dd\L	Pa-
.	.	.	.	.	.	12cc\	.
.	.	8g\	8g/	8dd\	.	.	.
.	.	.	.	.	.	12b\J	.
.	.	8d\	8f#/	8cc\	.	4cc\	-tris
*	*	*	*	*	*	*	*Xij
.	.	8d\J	8f#/J	8cc\J	.	.	.
!	!	!	!LO:LB:g=original	!	!	!	!
=35	=35	=35	=35	=35	=35	=35	=35
.	.	8d\L	8g/L	8b\L	.	8b\L	ſo-
.	.	8g\	8b/	8g\	.	8a\J	.
.	.	8g\	8b/	8b\	.	2g\	-ror,
.	.	8g\J	8b/J	8dd\J	.	.	.
!	!	!	!LO:TX:a:t=P:problem:mixed beam	!	!	!	!
.	.	8b\L	8dd\L	4gg\	.	.	.
.	.	8b\	8dd\	.	.	.	.
.	.	8d\	8f#/	4a/	.	8dd\L	ro-
.	.	8d\J	8f#/J	.	.	8cc\J	.
=36	=36	=36	=36	=36	=36	=36	=36
.	.	8g\L	8d/L	8b\L	.	8b\L	-ga-
.	.	8g\	8d/	8b\	.	8g\	.
.	.	8g\	8d/	8b\	.	8b\	.
.	.	8g\J	8d/J	8b\J	.	8dd\J	.
.	.	8g\L	8b\L	8dd\L	.	4gg\	.
.	.	8g\	8b\	8dd\	.	.	.
.	.	8g\	8b\	8dd\	.	4ffn\	-vit
.	.	8g\J	8b\J	8dd\J	.	.	.
=37	=37	=37	=37	=37	=37	=37	=37
.	.	8g\L	8cc\L	8ee\L	.	8ee\L	.
.	.	8g\	8cc\	8ee\	.	8cc\J	.
.	.	8g\	8cc\	8ee\	.	2gg\	ro-
.	.	8g\J	8cc\J	8ee\J	.	.	.
.	.	8g\L	8cc\L	8ee\L	.	.	.
.	.	8g\	8cc\	8ee\	.	.	.
.	.	8g\	8cc\	8ee\	.	8ee\L	-ga-
.	.	8g\J	8cc\J	8ee\J	.	8cc\J	.
!	!	!LO:LB:g=original	!	!	!	!	!
=38	=38	=38	=38	=38	=38	=38	=38
00r	.	8g\L	8b\L	8dd\L	.	8dd\L	.
.	.	8g\	8b\	8dd\	.	8b\J	.
.	.	8b\	8dd\	8gg\	.	2g\	.
.	.	8b\J	8dd\J	8gg\J	.	.	.
!	!	!	!	!LO:LB:g=original	!	!	!
.	.	8b\L	8dd\L	8gg\L	.	.	.
.	.	8b\	8dd\	8gg\	.	.	.
.	.	8g\	8b\	8dd\	.	8dd\L	.
.	.	8g\J	8b\J	8dd\J	.	8b\J	.
!	!	!	!	!	!	!LO:LB:g=original	!
=39	=39	=39	=39	=39	=39	=39	=39
.	.	8e\L	8g/L	8cc\L	.	4.cc\	.
.	.	8e\	8g/	8cc\	.	.	.
.	.	8e\	8g/	8cc\	.	.	.
.	.	8e\J	8g/J	8cc\J	.	16dd\LL	.
.	.	.	.	.	.	16ee\JJ	.
.	.	8f#\L	8a/L	8cc\L	.	4dd\	.
.	.	8f#\	8a/	8cc\	.	.	.
.	.	8f#\	8a/	8dd\	.	4cc\	-vit
.	.	8f#\J	8a/J	8cc\J	.	.	.
=40	=40	=40	=40	=40	=40	=40	=40
.	.	8g\L	8a/L	8cc\L	.	4cc\	di-
.	.	8g\	8g/	8dd\	.	.	.
.	.	8g\	8b/	8dd\	.	4b\	-cens,
.	.	8g\J	8b/J	8dd\J	.	.	.
.	.	8g\L	8a/L	8dd\L	.	4r	.
.	.	8g\	8a/	8dd\	.	.	.
.	.	8f#\	8a/	8dd\	.	4a\	E-
.	.	8f#\J	8a/J	8dd\J	.	.	.
=41	=41	=41	=41	=41	=41	=41	=41
.	.	8g\L	8g/L	8dd\L	.	4.b\	-gre-
.	.	8g\	8g/	8dd\	.	.	.
.	.	8g\	8g/	8dd\	.	.	.
.	.	8g\J	8g/J	8dd\J	.	16cc\LL	.
.	.	.	.	.	.	16dd\JJ	.
.	.	8f#\L	8a/L	8dd\L	.	4cc\	.
.	.	8f#\	8a/	8dd\	.	.	.
.	.	8g\	8b/	8dd\	.	4b\	.
.	.	8g\J	8b/J	8dd\J	.	.	.
=42	=42	=42	=42	=42	=42	=42	=42
00r	.	8d\L	8a/L	8dd\L	.	12a\L	.
.	.	.	.	.	.	12g\	.
.	.	8d\	8a/	8dd\	.	.	.
.	.	.	.	.	.	12f#\J	.
.	.	8f#\	8a/	8dd\	.	2dd\	.
.	.	8f#\J	8a/J	8dd\J	.	.	.
.	.	8d\L	8a/L	8ff#\L	.	.	.
.	.	8d\	8a/	8ff#\	.	.	.
.	.	8d\	8a/	8ff#\	.	12ff#\L	.
.	.	.	.	.	.	12ee\	.
.	.	8d\J	8a/J	8ff#\J	.	.	.
.	.	.	.	.	.	12dd\J	.
!	!	!	!LO:LB:g=original	!	!	!	!
=43	=43	=43	=43	=43	=43	=43	=43
.	.	8a\L	8cc#X\L	8ee\L	.	12cc#X\L	.
.	.	.	.	.	.	12b\	.
.	.	8a\	8cc#\	8ee\	.	.	.
.	.	.	.	.	.	12a\J	.
.	.	8a\	8cc#\	8ee\	.	2ee\	.
.	.	8a\J	8cc#\J	8ee\J	.	.	.
.	.	8cc#X\L	8ee\L	8gg\L	.	.	.
.	.	8cc#\	8ee\	8gg\	.	.	.
.	.	8cc#\	8ee\	8gg\	.	12gg\L	.
.	.	.	.	.	.	12ff#\	.
.	.	8cc#\J	8ee\J	8gg\J	.	.	.
.	.	.	.	.	.	12ee\J	.
=44	=44	=44	=44	=44	=44	=44	=44
.	.	8dd\L	8a/L	8ff#\L	.	12ff#\L	.
.	.	.	.	.	.	12ee\	.
.	.	8dd\	8a/	8ff#\	.	.	.
.	.	.	.	.	.	12dd\J	.
.	.	8dd\	8a/	8ff#\	.	2a\	.
.	.	8dd\J	8a/J	8ff#\J	.	.	.
.	.	8dd\L	8a/L	8ff#\L	.	.	.
.	.	8dd\	8a/	8ff#\	.	.	.
.	.	8dd\	8a/	8ff#\	.	12dd\L	.
.	.	.	.	.	.	12ee\	.
.	.	8dd\J	8a/J	8ff#\J	.	.	.
.	.	.	.	.	.	12ff#\J	.
=45	=45	=45	=45	=45	=45	=45	=45
.	.	8b\L	8ee\L	8gg\L	.	2ee\	.
.	.	8b\	8ee\	8gg\	.	.	.
.	.	8b\	8ee\	8gg\	.	.	.
.	.	8b\J	8ee\J	8gg\J	.	.	.
.	.	8b\L	8gg\L	8ee\L	.	2dd\	.
.	.	8b\	8gg\	8ee\	.	.	.
.	.	8b\	8gg\	8ee\	.	.	.
.	.	8b\J	8gg\J	8ee\J	.	.	.
!	!	!LO:LB:g=original	!	!	!	!	!
=46	=46	=46	=46	=46	=46	=46	=46
!	!	!	!	!LO:SIC:s=8cc#:v	!	!	!
00r	.	4a\	8ee\L	8cc\L	.	(4cc#X\	-de-
.	.	.	8ff#\	8aa\	.	.	.
.	.	4a\	8ee\	8gg\	.	4a\)	-re
.	.	.	8dd\J	8ff#\J	.	.	.
.	.	4a\	8cc#X\L	8ee\L	.	4r	.
.	.	.	8ee\	8gg\	.	.	.
.	.	4r	8dd\	8ff#\	.	4a\	ſi
.	.	.	8cc#\J	8ee\J	.	.	.
=47	=47	=47	=47	=47	=47	=47	=47
.	.	4r	8f#/L	8dd\L	.	2.a\	prae-
.	.	.	8a/	8ff#\	.	.	.
.	.	4a\	8g/	8ee\	.	.	.
.	.	.	8f#/J	8dd\J	.	.	.
!	!	!	!	!LO:LB:g=original	!	!	!
!	!	!	!	!LO:SIC:s=8cc#:v	!	!	!
.	.	4a\	8e/L	8cc\L	.	.	.
.	.	.	8g/	8ee\	.	.	.
.	.	4r	8f#/	8dd\	.	4a\	-va-
!	!	!	!	!LO:SIC:s=8cc#:v	!	!	!
.	.	.	8e/J	8cc\J	.	.	.
!	!	!	!	!	!	!LO:LB:g=original	!
=48	=48	=48	=48	=48	=48	=48	=48
!	!	!	!LO:TX:a:t=P:problem:mixed beam	!	!	!	!
.	.	4r	8f#/L	8dd\L	.	2.a\	-les
.	.	.	8gg\	8bb\	.	.	.
.	.	4a\	8ff#\	8aa\	.	.	.
.	.	.	8ee\J	8gg\J	.	.	.
.	.	4A/	4dd\	4ff#\	.	.	.
.	.	4r	4f#/	4a/	.	4dd\	ſanc-
=49	=49	=49	=49	=49	=49	=49	=49
.	.	4r	8d/L	8f#/L	.	2.dd\	-tiſ-
.	.	.	8f#/	8a/	.	.	.
.	.	4d\	8e/	8g/	.	.	.
.	.	.	8d/J	8f#/J	.	.	.
.	.	4d\	8e/L	8g/L	.	.	.
.	.	.	8g/	8b/	.	.	.
.	.	4r	8f#/	8a/	.	4dd\	-si-
.	.	.	8e/J	8g/J	.	.	.
=50	=50	=50	=50	=50	=50	=50	=50
0r	.	4r	8d/L	8f#/L	.	2.dd\	-me
.	.	.	8g/	8b/	.	.	.
.	.	4d\	8f#/	8a/	.	.	.
.	.	.	8e/J	8g/J	.	.	.
.	.	4d\	4d/	4f#/	.	.	.
.	.	4A/	4cc#X\	4ee\	.	4gg\	me
=51	=51	=51	=51	=51	=51	=51	=51
!	!	!	!LO:SIC:s=4cc#:v	!	!	!	!
.	.	4A/	4cc\	4gg\	.	4gg\	di-
.	.	4A/	4dd\	8ff#\L	.	8ff#\L	-miſ-
.	.	.	.	8ee\J	.	8ee\J	.
.	.	4d\	4a\	4ff#\	.	(4ff#\	.
!	!	!	!LO:SIC:s=4cc#:v	!	!	!	!
.	.	4A/	4cc\	4gg\	.	4ee\)	.
!	!	!	!LO:LB:g=original	!	!	!	!
=52	=52	=52	=52	=52	=52	=52	=52
4D\	.	4f#\	8dd\L	8aa\L	.	4dd\	-sa
.	.	.	8aa\	8aa\	.	.	.
4D\	.	4f#\	8aa\	8aa\	.	4r	.
.	.	.	8aa\J	8aa\J	.	.	.
4D\	.	4f#\	4ff#\	4ff#\	.	2r	.
4D\	.	4f#\	8ee\L	8ee\L	.	.	.
.	.	.	8dd\J	8dd\J	.	.	.
=53	=53	=53	=53	=53	=53	=53	=53
4D/	.	4g\	4bb\	4bb\	.	00r	.
4D/	.	4f#\	4aa\	4aa\	.	.	.
4D/	.	8f#\L	8ddd\L	8ddd\L	.	.	.
!	!	!	!LO:SIC:s=8ccc#:v	!LO:SIC:s=8ccc#:v	!	!	!
.	.	8g\	8ccc\	8ccc\	.	.	.
4C/	.	8f#\	8bb\	8bb\	.	.	.
.	.	8e\J	8aa\J	8aa\J	.	.	.
=54	=54	=54	=54	=54	=54	=54	=54
4D\	.	4f#\	12ff#\L	12ff#\L	.	.	.
.	.	.	12ee\	12ee\	.	.	.
.	.	.	12dd\J	12dd\J	.	.	.
4B\	.	4d\	8gg\L	8gg\L	.	.	.
.	.	.	8ee\J	8ee\J	.	.	.
4A\	.	4d\	4.ff#\	4.ff#\	.	.	.
4AA/	.	4c\	.	.	.	.	.
.	.	.	8ee\	8ee\	.	.	.
=55	=55	=55	=55	=55	=55	=55	=55
12d\L	.	12dd\L	12dd\L	12dd\L	.	.	.
!	!	!	!LO:SIC:s=8cc#:v	!LO:SIC:s=8cc#:v	!	!	!
12c#X\	.	12cc#X\	12cc\	12cc\	.	.	.
12B\J	.	12b\J	12b\J	12b\J	.	.	.
8A\L	.	8a\L	8a/L	8a/L	.	.	.
8F#\J	.	8f#\J	8f#/J	8f#/J	.	.	.
4G\	.	4g\	4g/	4g/	.	.	.
4A\	.	4a\	4a/	4a/	.	.	.
!LO:LB:g=original	!	!LO:LB:g=original	!	!LO:LB:g=original	!	!	!
=56	=56	=56	=56	=56	=56	=56	=56
12d\L	.	12dd\L	12dd\L	12dd\L	.	.	.
!LO:TX:a:t=P:problem:♯ nad nutą	!	!	!LO:SIC:s=8cc#:v	!LO:SIC:s=8cc#:v	!	!	!
12c#X\	.	12cc#X\	12cc\	12cc\	.	.	.
12B\J	.	12b\J	12b\J	12b\J	.	.	.
8A\L	.	8a\L	8a/L	8a/L	.	.	.
8F#\J	.	8f#\J	8f#/J	8f#/J	.	.	.
4G\	.	4g\	4g/	4g/	.	.	.
4A\	.	4a\	4a/	4a/	.	.	.
=57	=57	=57	=57	=57	=57	=57	=57
!	!	!	!LO:TX:a:t=P:problem:mixed beam	!LO:TX:a:t=P:problem:mixed beam	!	!	!
8d\L	.	8dd\L	8dd\L	8dd\L	.	1r	.
8A\	.	8a\	8a/	8a/	.	.	.
8F#\	.	8f#\	8f#/	8f#/	.	.	.
8A\J	.	8a\J	8a/J	8a/J	.	.	.
4D/	.	4d\	4d/	4d/	.	.	.
4r	.	4r	4r	4r	.	.	.
=58	=58	=58	=58	=58	=58	=58	=58
00r	.	8d\L	8a/L	8f#/L	.	(4dd\	re-
.	.	8d\	8a/	8f#/	.	.	.
.	.	8d\	8a/	8a/	.	4ff#\)	.
.	.	8d\J	8a/J	8a/J	.	.	.
.	.	8d\L	8a/L	8g/L	.	(4ee\	.
.	.	8d\	8a/	8g/	.	.	.
.	.	8d\	8a/	8f#/	.	4dd\)	.
.	.	8d\J	8a/J	8f#/J	.	.	.
=59	=59	=59	=59	=59	=59	=59	=59
.	.	8a\L	8a\L	8e/L	.	8cc#X\L	.
!	!	!	!LO:TX:a:t=P:problem:♯ nad nutą	!	!	!	!
.	.	8a\	8cc#X\	8e/	.	8ee\J	.
.	.	8a\	8cc#\	8e/	.	2a\	-di
.	.	8a\J	8cc#\J	8e/J	.	.	.
.	.	8f#\L	8dd\L	8f#/L	.	.	.
.	.	8f#\	8dd\	8f#/	.	.	.
.	.	8d\	8dd\	8g/	.	4b\	ad
.	.	8d\J	8dd\J	8g/J	.	.	.
=60	=60	=60	=60	=60	=60	=60	=60
.	.	8d\L	8a/L	8f#/L	.	4a\	.
.	.	8d\	8a/	8f#/	.	.	.
.	.	8d\	8f#/	8a/	.	4dd\	mo-
.	.	8d\J	8f#/J	8a/J	.	.	.
!	!	!LO:TX:a:t=P:problem:mixed beam	!LO:LB:g=original	!	!	!	!
.	.	8e\L	8g/L	8dd\L	.	2g\	-naſ-
.	.	8e\	8g/	8dd\	.	.	.
!	!	!	!	!LO:SIC:s=8cc#:v	!	!	!
.	.	8A/	8g/	8cc\	.	.	.
!	!	!	!	!LO:SIC:s=8cc#:v	!	!	!
.	.	8A/J	8g/J	8cc\J	.	.	.
=61	=61	=61	=61	=61	=61	=61	=61
.	.	8d\L	8f#/L	8dd\L	.	8f#/	-te-
.	.	8a\	8f#/	8dd\	.	8dd\L	.
.	.	8a\	8f#/	8dd\	.	8cc#X\	.
.	.	8a\J	8f#/J	8dd\J	.	8b\J	.
!	!	!LO:TX:a:t=P:problem:mixed beam	!	!	!	!	!
.	.	8e\L	8g/L	8dd\L	.	(4a\	.
.	.	8e\	8g/	8dd\	.	.	.
.	.	8A/	8a/	8cc#X\	.	4g\)	.
.	.	8A/J	8a/J	8cc#\J	.	.	.
!	!	!	!	!	!	!LO:LB:g=original	!
=62	=62	=62	=62	=62	=62	=62	=62
00r	.	8d\L	8a/L	8dd\L	.	8f#/L	.
.	.	8d\	8a/	8dd\	.	8d/J	.
.	.	8f#\	8a/	8dd\	.	2a\	.
.	.	8d\J	8a/J	8dd\J	.	.	.
.	.	8f#\L	8a/L	8ff#\L	.	.	.
.	.	8d\	8a/	8ff#\	.	.	.
.	.	8e\	8a/	8ff#\	.	8dd\L	.
.	.	8f#\J	8a/J	8ff#\J	.	8cc\J	.
=63	=63	=63	=63	=63	=63	=63	=63
.	.	4g\	8r	8r	.	8b\L	.
.	.	.	8b/L	8gg\L	.	8cc\J	.
.	.	4G/	8b/	8gg\	.	2dd\	.
.	.	.	8b/J	8gg\J	.	.	.
.	.	2r	4b/	4gg\	.	.	.
.	.	.	4r	4r	.	8cc\L	.
.	.	.	.	.	.	8b\J	.
!	!	!	!	!LO:LB:g=original	!	!	!
=64	=64	=64	=64	=64	=64	=64	=64
!	!	!	!	!	!	!LO:TX:a:t=P:problem:mixed beam	!
.	.	4dd\	8r	8r	.	8a\L	.
.	.	.	8a/L	8ff#\L	.	8d/J	.
.	.	4d\	8a/	8ff#\	.	2cc\	.
.	.	.	8a/J	8ff#\J	.	.	.
.	.	4d\	4a/	4ff#\	.	.	.
.	.	4g\	4r	4r	.	8b\L	.
.	.	.	.	.	.	8a\J	.
!	!	!LO:LB:g=original	!	!	!	!	!
=65	=65	=65	=65	=65	=65	=65	=65
.	.	4g\	12b/L	4gg\	.	4b\	.
.	.	.	12a/	.	.	.	.
!	!	!	!LO:SIC:s=8g:v	!	!	!	!
.	.	.	12f#/J	.	.	.	.
.	.	4d\	4a/	2ff#\	.	2a\	.
.	.	4d\	4a/	.	.	.	.
.	.	4d\	4cc\	4aa\	.	4cc\	-ri-
=66	=66	=66	=66	=66	=66	=66	=66
0r	.	4g\	8dd\L	4aa\	.	4cc\	-um
.	.	.	8a\	.	.	.	.
.	.	4g\	8b\	8gg\L	.	4b\	.
.	.	.	8a\J	8ff#\J	.	.	.
.	.	4g\	4b\	4gg\	.	4r	.
.	.	4g\	4b\	4gg\	.	4gg\	ro-
=67	=67	=67	=67	=67	=67	=67	=67
*	*	*2\right	*	*	*	*	*
.	.	2d\	2g;/	2b;\	.	(2b\	-ga-
.	.	2d\	2ff#\	2cc\	.	2a\)	.
=68	=68	=68	=68	=68	=68	=68	=68
4G\	.	4B/	8dd\L	8dd\L	.	2g\	-vi
.	.	.	8dd\	8dd\	.	.	.
4G\	.	4B/	8dd\	8dd\	.	.	.
.	.	.	8dd\J	8dd\J	.	.	.
4G\	.	4B/	4b/	4b/	.	2r	.
4G\	.	4B/	8a/L	8a/L	.	.	.
.	.	.	8g/J	8g/J	.	.	.
!	!	!	!LO:LB:g=original	!	!	!	!
=69	=69	=69	=69	=69	=69	=69	=69
4G\	.	4c\	4cc\	4ee\	.	00r	.
4G\	.	4d\	4b\	4dd\	.	.	.
4B\	.	4d\	2dd\	2gg\	.	.	.
4G\	.	4B/	.	.	.	.	.
=70	=70	=70	=70	=70	=70	=70	=70
4c\	.	4G/	12ee\L	12ee\L	.	.	.
.	.	.	12dd\	12dd\	.	.	.
.	.	.	12cc\J	12cc\J	.	.	.
4c\	.	4G/	4ee\	4ee\	.	.	.
4B\	.	4B/	12dd\L	12dd\L	.	.	.
.	.	.	12cc\	12cc\	.	.	.
.	.	.	12b\J	12b\J	.	.	.
!	!	!LO:SIC:s=4A:v	!	!	!	!	!
4F#\	.	4G/	4cc\	4cc\	.	.	.
=71	=71	=71	=71	=71	=71	=71	=71
4G\	.	4B/	12b/L	12b/L	.	.	.
.	.	.	12a/	12a/	.	.	.
.	.	.	12g/J	12g/J	.	.	.
4G\	.	4B/	2g/	2g/	.	.	.
4B\	.	4d/	.	.	.	.	.
4G\	.	4B/	4dd\	4dd\	.	.	.
=72	=72	=72	=72	=72	=72	=72	=72
4c\	.	4G/	12ee\L	12ee\L	.	.	.
.	.	.	12dd\	12dd\	.	.	.
.	.	.	12cc\J	12cc\J	.	.	.
4c\	.	4G/	4ee\	4ee\	.	.	.
4B\	.	4G/	12dd\L	12dd\L	.	.	.
.	.	.	12cc\	12cc\	.	.	.
.	.	.	12b\J	12b\J	.	.	.
4F#\	.	4A/	4cc\	4cc\	.	.	.
!	!	!	!	!LO:LB:g=original	!	!	!
=73	=73	=73	=73	=73	=73	=73	=73
4G\	.	4d\	12b/L	12b/L	.	0r	.
.	.	.	12a/	12a/	.	.	.
.	.	.	12g/J	12g/J	.	.	.
4C/	.	4e\	8cc\L	8cc\L	.	.	.
.	.	.	8a\J	8a\J	.	.	.
4D/	.	4d\	4.b/	4.b/	.	.	.
4DD/	.	4f#\	.	.	.	.	.
.	.	.	8a/	8a/	.	.	.
=74	=74	=74	=74	=74	=74	=74	=74
12G\L	.	12g\L	12g/L	12g/L	.	.	.
12F#\	.	12f#\	12f#/	12f#/	.	.	.
12E\J	.	12e\J	12e/J	12e/J	.	.	.
8D/L	.	8d\L	8d/L	8d/L	.	.	.
8BB/J	.	8B\J	8B/J	8B/J	.	.	.
4C/	.	4c\	4c/	4c/	.	.	.
4D/	.	4d\	4d/	4d/	.	.	.
!LO:LB:g=original	!	!	!	!	!	!	!
=75	=75	=75	=75	=75	=75	=75	=75
!	!	!	!	!	!	!LO:TX:a:t=P:problem:fermata nad i pod pauzami wielotaktowymi	!
12G\L	.	12g\L	12g/L	12g/L	.	1r;;	.
12F#\	.	12f#\	12f#/	12f#/	.	.	.
12E\J	.	12e\J	12e/J	12e/J	.	.	.
8D/L	.	8d\L	8d/L	8d/L	.	.	.
8BB/J	.	8B\J	8B/J	8B/J	.	.	.
4C/	.	4c\	4c/	4c/	.	.	.
4D/	.	4d\	4d/	4d/	.	.	.
!	!	!LO:LB:g=original	!	!	!	!	!
=76	=76	=76	=76	=76	=76	=76	=76
8G\L	.	8g\L	8g/L	8g/L	.	2r	.
8D\	.	8d\	8d/	8d/	.	.	.
8BB\	.	8B\	8B/	8B/	.	.	.
8D\J	.	8d\J	8d/J	8d/J	.	.	.
!	!	!LO:TX:a:t=P:problem:fermaty bez kropek	!	!	!	!	!
4GG;;/	.	4G;;/	4G;;/	4G;;/	.	4r	.
4r	.	4r	4r	4r	.	4b\	Ro-
!	!	!	!LO:LB:g=original	!	!	!LO:LB:g=original	!
=77	=77	=77	=77	=77	=77	=77	=77
00r	.	2e\	4r	4r	.	2.b\	-ga-
.	.	.	4g/	4b/	.	.	.
.	.	4g\	4g/	4b/	.	.	.
.	.	4b\	4f#/	4a/	.	8cc#X\	-vi
.	.	.	.	.	.	8dd#X\	te
=78	=78	=78	=78	=78	=78	=78	=78
.	.	2e\	4b/	4g/	.	2ee\	nec
.	.	.	4g/	4b/	.	.	.
.	.	2r	4f#/	4a/	.	2ee\	po-
.	.	.	4e/	4g/	.	.	.
=79	=79	=79	=79	=79	=79	=79	=79
.	.	4B/	4r	4r	.	8ee\L	-tu-
.	.	.	.	.	.	8dd#X\J	-i
.	.	4B/	4f#/	4b/	.	2ee\	.
.	.	4d#X\	4f#/	4a/	.	.	.
.	.	4e\	4g/	4b/	.	4ee\	op-
=80	=80	=80	=80	=80	=80	=80	=80
.	.	4a\	8r	8r	.	2ccn\	-ti-
.	.	.	8dd\L	8ffn\L	.	.	.
.	.	4a\	8cc\	8ee\	.	.	.
.	.	.	8b\J	8dd\J	.	.	.
.	.	4a\	4cc\	4ee\	.	2cc\	-ne-
.	.	4a\	4a\	4cc\	.	.	.
!	!	!	!	!LO:LB:g=original	!	!	!
=81	=81	=81	=81	=81	=81	=81	=81
00r	.	4b\	8r	8r	.	4.f#/	-re
.	.	.	8g/L	8b/L	.	.	.
.	.	4B/	8f#/	8a/	.	.	.
.	.	.	8e/J	8g/J	.	8f#/	.
.	.	4B/	4d#X/	4f#/	.	4f#/	quod
.	.	4B/	4d#/	4f#/	.	(8b\L	vo-
.	.	.	.	.	.	8a\J)	.
=82	=82	=82	=82	=82	=82	=82	=82
.	.	4e\	4e/	4r	.	8g#X\L	.
.	.	.	.	.	.	8a\J	.
.	.	4e\	4b/	4dd\	.	2b\	.
.	.	4e\	8b\L	8dd\L	.	.	.
.	.	.	8dd\	8ffn\	.	.	.
.	.	4e\	8cc\	8ee\	.	8a\L	.
.	.	.	8b\J	8dd\J	.	8g#X\J	.
=83	=83	=83	=83	=83	=83	=83	=83
.	.	4a\	8a/	8cc\	.	4.cc\	.
.	.	.	4cc\	4ee\	.	.	.
.	.	4a\	.	.	.	.	.
.	.	.	8a/	8cc\	.	8cc\	-lu-
.	.	4a\	4e/	4a/	.	4cc\	-i
.	.	4a\	4c#X/	4e/	.	8a\	vo-
.	.	.	.	.	.	8gn\	-lu-
!	!	!	!	!	!	!LO:LB:g=original	!
=84	=84	=84	=84	=84	=84	=84	=84
.	.	4d\	4r	4r	.	(8f#/L	-i
.	.	.	.	.	.	8g/J)	.
.	.	4d\	4a/	4cc\	.	4a\	.
.	.	4d\	8a/L	8cc\L	.	4a\	.
.	.	.	8cc/	8ee\	.	.	.
.	.	4d\	8b/	8dd\	.	8g/L	Ro-
.	.	.	8a/J	8cc\J	.	8f#/J	.
=85	=85	=85	=85	=85	=85	=85	=85
0r	.	4g\	8g/	8b\	.	2b\	-ga-
.	.	.	4b/	4dd\	.	.	.
.	.	4g\	.	.	.	.	.
.	.	.	8g/	8b\	.	.	.
.	.	4g\	4d/	4g/	.	4b\	.
.	.	4d#X\	4f#/	4b/	.	8b\L	-vi
.	.	.	.	.	.	8a\J	.
!	!	!	!LO:LB:g=original	!	!	!	!
=86	=86	=86	=86	=86	=86	=86	=86
.	.	4e\	2b\	8g/L	.	(2g/	de-
.	.	.	.	8f#/J	.	.	.
.	.	4g\	.	4e/	.	.	.
!	!	!	!	!LO:TX:a:t=P:problem:niejednoznaczny zapis ozdobnika [przyjęto mordent]&colon;global	!	!	!
.	.	4b\	2f#/	2f#m/	.	2f#/)	.
.	.	4B/	.	.	.	.	.
=87	=87	=87	=87	=87	=87	=87	=87
!	!	!	!LO:TX:a:t=P:problem:mixed beam	!	!	!	!
4E\	.	4g\	8B/L	8e/L	.	4e/	-um
.	.	.	8b\J	8b/J	.	.	.
4E\	.	4g\	2b\	2b/	.	4r	.
!	!	!LO:LB:g=original	!	!	!	!	!
4E\	.	4g\	.	.	.	2r	.
4E\	.	8a\L	8cc\L	8cc\L	.	.	.
.	.	8g\J	8b\J	8b\J	.	.	.
=88	=88	=88	=88	=88	=88	=88	=88
4E\	.	4g\	4b\	4b\	.	00r	.
4E\	.	8a\L	8cc\L	8cc\L	.	.	.
.	.	8g\J	8b\J	8b\J	.	.	.
4E\	.	4g\	4b\	4b\	.	.	.
4A\	.	4cc\	4ee\	4ee\	.	.	.
=89	=89	=89	=89	=89	=89	=89	=89
4B\	.	4f#\	4dd#X\	4dd#X\	.	.	.
4B\	.	4f#\	8ee\L	8ee\L	.	.	.
.	.	.	8ff#\J	8ff#\J	.	.	.
!	!	!	!	!LO:LB:g=original	!	!	!
4D#X/	.	4f#\	8b/L	8b/L	.	.	.
.	.	.	8a/	8a/	.	.	.
4D#/	.	4f#\	8g/	8g/	.	.	.
.	.	.	8f#/J	8f#/J	.	.	.
=90	=90	=90	=90	=90	=90	=90	=90
4E\	.	4B/	12g/L	12g/L	.	.	.
.	.	.	12f#/	12f#/	.	.	.
.	.	.	12e/J	12e/J	.	.	.
4A\	.	4c/	8a/L	8a/L	.	.	.
.	.	.	8f#/J	8f#/J	.	.	.
4B\	.	4e\	4.gM/	4.gM/	.	.	.
4BB/	.	4d#X\	.	.	.	.	.
.	.	.	8f#/	8f#/	.	.	.
=91	=91	=91	=91	=91	=91	=91	=91
!	!	!	!LO:TX:a:t=P:problem:mixed beam	!LO:TX:a:t=P:problem:mixed beam	!	!	!
4E\	.	4e\	8e/L	8e/L	.	.	.
.	.	.	8ee\	8gg\	.	.	.
!	!	!LO:SIC:s=4c#:v	!	!	!	!	!
4AA#X/	.	4c\	8dd\	8ff#\	.	.	.
!	!	!	!LO:SIC:s=8cc#:v	!	!	!	!
.	.	.	8cc\J	8ee\J	.	.	.
4BB/	.	4f#\	4b/	4dd\	.	.	.
4F#\	.	4f#\	4a#X/	4cc#X\	.	.	.
=92	=92	=92	=92	=92	=92	=92	=92
4BB/	.	4f#\	12b/L	12dd\L	.	1r	.
!	!	!	!LO:SIC:s=8cc#:v	!LO:SIC:s=8cc#:v	!	!	!
.	.	.	12cc/	12cc\	.	.	.
.	.	.	12b/J	12b\J	.	.	.
4BB/	.	4f#\	8b/L	8b'\L	.	.	.
.	.	.	8b/J	8b'\J	.	.	.
4BB/	.	8d\L	8b\L	2gg\	.	.	.
.	.	8g\	8ee\	.	.	.	.
4r	.	8f#\	8dd\	.	.	.	.
.	.	8e\J	8cc#X\J	.	.	.	.
=93	=93	=93	=93	=93	=93	=93	=93
4BB/	.	4f#\	4dd\	4ff#\	.	2r	.
!	!	!	!LO:SIC:s=8cc#:v	!	!	!	!
4E\	.	4g\	8cc\L	8ee\L	.	.	.
.	.	.	8b\J	8dd\J	.	.	.
4F#\	.	4f#\	4.a#X/	4.cc#X\	.	4r	.
4FF#/	.	4c#X\	.	.	.	4f#/	Ro-
.	.	.	8a#/	8cc#\	.	.	.
!LO:LB:g=original	!	!	!LO:LB:g=original	!	!	!	!
=94	=94	=94	=94	=94	=94	=94	=94
4BB/	.	4d\	4b/	4b/	.	2b\	-ga-
4r	.	4r	4f#/	4f#/	.	.	.
4r	.	4r	4f#/	4f#/	.	4b\	-vi
4BB/	.	4d\	4r	4r	.	8dd\L	.
!	!	!	!	!	!	!LO:TX:a:t=P:problem:♯ nad nutą	!
.	.	.	.	.	.	8cc#X\J	.
=95	=95	=95	=95	=95	=95	=95	=95
4BB/	.	4d\	4r	4r	.	4b\	Ro-
4r	.	4r	4d/	4b\	.	8dd\L	-ga-
!	!	!	!	!	!	!LO:TX:a:t=P:problem:♯ nad nutą	!
.	.	.	.	.	.	8cc#X\J	.
4r	.	4r	4d/	4b\	.	8b\L	.
!	!	!	!	!	!	!LO:TX:a:t=P:problem:♯ nad nutą	!
.	.	.	.	.	.	8cc#X\	.
!LO:TX:a:t=P:problem:niejednoznaczny zapis wysokości [przyjęto F#]	!	!	!	!	!	!	!
4F#\	.	4b\	4r	4r	.	8dd\	.
.	.	.	.	.	.	8ee\J	.
=96	=96	=96	=96	=96	=96	=96	=96
!LO:TX:a:t=P:problem:krzyżyk nad nutą	!	!	!	!	!	!	!
4F#X\	.	4f#\	8r	8r	.	4.ff#\	.
!	!	!	!LO:TX:a:t=P:problem:♯ przed pauzą	!LO:SIC:s=8cc#:v	!	!	!
.	.	.	8a#X/L	8cc\L	.	.	.
!	!	!	!	!LO:SIC:s=8cc#:v	!	!	!
4F#\	.	4f#\	8a#/	8cc\	.	.	.
!	!	!	!	!LO:SIC:s=8cc#:v	!	!	!
.	.	.	8a#/J	8cc\J	.	8ff#\	.
!	!	!	!	!LO:SIC:s=8cc#:v	!	!	!
4F#\	.	4f#\	8a#/L	8cc\L	.	2ff#\	-vi
!	!	!	!	!LO:SIC:s=8cc#:v	!	!	!
.	.	.	8a#/	8cc\	.	.	.
!	!	!	!	!LO:SIC:s=8cc#:v	!	!	!
4F#\	.	4f#\	8a#/	8cc\	.	.	.
!	!	!	!	!LO:SIC:s=8cc#:v	!	!	!
.	.	.	8a#/J	8cc\J	.	.	.
!	!	!	!	!	!	!LO:LB:g=original	!
=97	=97	=97	=97	=97	=97	=97	=97
!	!	!	!LO:SIC:s=4a#:v	!LO:SIC:s=4cc#:v	!	!	!
4F#\	.	4f#\	4a/	4cc\	.	4r	.
!	!	!	!LO:SIC:s=4a#:v	!	!	!LO:TX:a:t=P:problem:♯ nad nutą	!
4F#\	.	4f#\	4a/	4ff#\	.	2cc#X\	et
!	!	!	!LO:SIC:s=4a#:v	!	!	!	!
4F#\	.	4f#\	4a/	4f#/	.	.	.
4BB/	.	4f#\	4b/	4dd\	.	4dd\	ex-
!	!	!LO:LB:g=original	!	!LO:LB:g=original	!	!	!
=98	=98	=98	=98	=98	=98	=98	=98
1AA#X	7	2e\	4cc#X\	4ee\	.	(4ee\	-au-
.	.	.	4ee\	4gg\	.	4gg\)	.
.	6	2f#\	4dd\	4ff#\	.	(4ff#\	.
.	.	.	4cc#\	4ee\	.	4ee\)	.
=99	=99	=99	=99	=99	=99	=99	=99
2BB/	.	2f#\	2b/	4dd\	.	(4dd\	.
.	.	.	.	4ee\	.	4ee\)	.
*2\right	*	*	*	*	*	*	*
2E\	.	2B/	2g/	4ff#\	.	4ff#\	.
.	.	.	.	4gg\	.	4gg\	.
=100	=100	=100	=100	=100	=100	=100	=100
1F#;	.	1f#	1f#	1f#;	.	2dd\	-di-
.	.	.	.	.	.	2cc#X\	-vit
=101	=101	=101	=101	=101	=101	=101	=101
!	!	!LO:TX:b:t=P:problem:brak informacji o Da capo	!	!	!	!	!
!LO:TX:b:B:t=Da capo ||	!	!	!LO:TX:b:B:t=Da Capo del Segno	!LO:TX:b:B:t=Da Capo del Segno	!	!	!
1BB	.	1B	1B	1B;	.	1b	me
==	==	==	==	==	==	==	==
*-	*-	*-	*-	*-	*-	*-	*-
!!!system-decoration: s1,[g1],s5
!!!RDF**kern: > = above
!!!RDF**kern: < = below
!!!RDF**dynam: p = "pia:"
!!!AIN: 1 empty 1 viola 2 violn 1 vox
!!!ENC: Marta Lawrence
!!!END: 2020-10-06
!!!ENC: Andrzej Kubiczek
!!!END: 2020-05-20
